X: 135
T:Havada Bulut Yok
T:There is No Cloud in the Sky
T:Yemen Song
S:composite of several sources
M:10/8
L:1/8
Q:5/8=36
K:DDor
  FG2 A2 A3 |A2 A3  AG GAG|G2 ccG G2 AFA|G2
  FG2 A2 A3 |A2 A3  AG GAG|G2 ccG G2 AFA|G2
  FG2 A2 A3 |A2 A3  AG GAG|G2 ccG G2 AFA|G2||
|:AAG GF A2G|G2 GGF FE G2E|F2
  FFE ED F2E|E2 FED D2 E2D|DD D3  DC D3-|D2:|

This mode was used for one of the most important examples in Western music
theory.  The "do-re-mi" note naming scheme was originally "ut-re-mi",
derived by Guido d'Arezzo from the first word in each of the six verse
lines in the hymn to St John the Baptist, "Ut queant laxis", which Guido
may have written himself.  Guido had no name for the B (later "si" or 
"ti") and it doesn't occur in the tune; early music theory used hexachords
rather than full-octave scales.

